_site/assets/images/icon-hands.svg

<?xml version="1.0" encoding="UTF-8"?>
<svg width="200px" height="200px" viewBox="0 0 200 200" version="1.1" xmlns="http://www.w3.org/2000/svg" xmlns:xlink="http://www.w3.org/1999/xlink">
    <!-- Generator: Sketch 50.2 (55047) - http://www.bohemiancoding.com/sketch -->
    <title>icon-hands</title>
    <desc>Created with Sketch.</desc>
    <defs></defs>
    <g id="Landing" stroke="none" stroke-width="1" fill="none" fill-rule="evenodd">
        <g id="landing-page-mvp" transform="translate(-886.000000, -1899.000000)">
            <g id="Group-7" transform="translate(338.000000, 1751.000000)">
                <g id="Group-5-Copy" transform="translate(484.000000, 148.000000)">
                    <g id="Group-9" transform="translate(64.000000, 0.000000)">
                        <g id="five" transform="translate(146.669951, 68.580645) rotate(-90.000000) translate(-146.669951, -68.580645) translate(97.064039, 22.274194)">
                            <path d="M39.2186182,88.6346205 C40.6523843,85.9321605 37.0048975,62.2405359 37.4863729,62.1214385 C46.5988716,59.8831081 62.3738524,52.7582815 68.9919179,46.3970795 C80.9808322,34.8709036 103.625761,38.5434336 98.2442519,26.4182679 C89.7398329,14.3764774 65.0086419,30.4142575 65.0086419,30.4142575 C64.9908753,25.4717155 65.1507749,6.00379669 64.7545793,1.14532353 C58.7618988,0.0664412403 52.1207367,0.60237952 47.6026856,4.48705633 C40.8318272,-5.43305614 22.6761195,6.52922637 15.7506915,3.01235034 C7.31865429,11.0566788 1.37039034,33.3594176 0.263529998,44.0203859 C-1.15957616,57.7989037 4.04959645,72.7386211 3.53969449,87.0355628 C14.3009355,87.9918448 34.711227,97.0782755 39.2186182,88.6346205 Z" id="Fill-1" fill="#080061"></path>
                            <path d="M64.1134796,12.7527832 C64.0529236,12.7361611 64.0455834,12.9504017 64.0932942,12.9799521 C67.1816509,14.849017 59.6800455,21.4516916 58.6487582,22.0519348 C52.231656,25.7697485 53.0647599,16.0458095 53.4721367,12.2984453 C53.5767335,11.3472908 52.8023505,8.98879693 52.1784401,10.9760635 C49.2680814,20.2124204 40.2415656,33.1518158 37.1220134,17.5159435 C36.9917262,16.3800987 36.8045531,15.2885796 36.5806794,14.3041809 C35.721885,10.495869 33.985946,14.3835977 33.9107097,16.7974986 C33.8850193,16.8122738 33.8611639,16.8288959 33.8354735,16.8436711 C35.2833127,26.0726404 25.0199861,24.7631869 23.4803954,16.0698192 C23.4803954,14.4870242 23.3941489,13.0759911 23.2638618,12.0491135 C22.7885888,8.34792194 20.6562832,10.0267559 20.5039756,12.8340469 C20.4562648,13.6540714 20.46911,14.7141931 20.5406762,15.8869759 C20.1388045,19.9760169 17.1972504,22.8220929 13.4813132,24.460295 C12.4647063,24.9072452 12.5968285,27.6332726 13.3877267,28.209506 C18.4358961,31.8885348 21.0875154,29.2326897 22.383047,24.9534178 C23.876762,28.7875863 26.3944241,31.7463233 30.4883775,31.0703572 C33.92906,30.4996645 35.7695958,28.248291 36.6412354,25.4114495 C39.0176001,30.1487531 42.6950016,33.4343918 47.326619,27.2454232 C49.2350509,24.6874639 50.8241874,21.8247658 51.9086906,18.7903058 C51.9307109,19.1209013 51.9380511,19.4570375 51.9710816,19.7913267 C52.053658,21.0472201 52.4335093,22.1516675 52.8372161,23.3262971 C55.881532,32.2117427 69.0240217,14.3817508 64.1134796,12.7527832" id="Fill-1" fill="#095FEA"></path>
                        </g>
                        <g id="five-copy" transform="translate(49.330049, 113.951613) scale(-1, 1) rotate(-90.000000) translate(-49.330049, -113.951613) translate(-0.743842, 67.645161)">
                            <path d="M39.2186182,88.6346205 C40.6523843,85.9321605 37.0048975,62.2405359 37.4863729,62.1214385 C46.5988716,59.8831081 62.3738524,52.7582815 68.9919179,46.3970795 C80.9808322,34.8709036 104.561721,38.5434336 99.1802125,26.4182679 C93.5960591,16.8387097 66.3713416,23.4203503 65.0086419,28.5432897 C64.9908753,23.6007478 65.1507749,6.00379669 64.7545793,1.14532353 C58.7618988,0.0664412403 52.1207367,0.60237952 47.6026856,4.48705633 C40.8318272,-5.43305614 22.6761195,6.52922637 15.7506915,3.01235034 C7.31865429,11.0566788 1.37039034,33.3594176 0.263529998,44.0203859 C-1.15957616,57.7989037 4.04959645,72.7386211 3.53969449,87.0355628 C14.3009355,87.9918448 34.711227,97.0782755 39.2186182,88.6346205 Z" id="Fill-1" fill="#FF0056"></path>
                            <path d="M64.1134796,12.7527832 C64.0529236,12.7361611 64.0455834,12.9504017 64.0932942,12.9799521 C67.1816509,14.849017 59.6800455,21.4516916 58.6487582,22.0519348 C52.231656,25.7697485 53.0647599,16.0458095 53.4721367,12.2984453 C53.5767335,11.3472908 52.8023505,8.98879693 52.1784401,10.9760635 C49.2680814,20.2124204 40.2415656,33.1518158 37.1220134,17.5159435 C36.9917262,16.3800987 36.8045531,15.2885796 36.5806794,14.3041809 C35.721885,10.495869 33.985946,14.3835977 33.9107097,16.7974986 C33.8850193,16.8122738 33.8611639,16.8288959 33.8354735,16.8436711 C35.2833127,26.0726404 25.0199861,24.7631869 23.4803954,16.0698192 C23.4803954,14.4870242 23.3941489,13.0759911 23.2638618,12.0491135 C22.7885888,8.34792194 20.6562832,10.0267559 20.5039756,12.8340469 C20.4562648,13.6540714 20.46911,14.7141931 20.5406762,15.8869759 C20.1388045,19.9760169 17.1972504,22.8220929 13.4813132,24.460295 C12.4647063,24.9072452 12.5968285,27.6332726 13.3877267,28.209506 C18.4358961,31.8885348 21.0875154,29.2326897 22.383047,24.9534178 C23.876762,28.7875863 26.3944241,31.7463233 30.4883775,31.0703572 C33.92906,30.4996645 35.7695958,28.248291 36.6412354,25.4114495 C39.0176001,30.1487531 42.6950016,33.4343918 47.326619,27.2454232 C49.2350509,24.6874639 50.8241874,21.8247658 51.9086906,18.7903058 C51.9307109,19.1209013 51.9380511,19.4570375 51.9710816,19.7913267 C52.053658,21.0472201 52.4335093,22.1516675 52.8372161,23.3262971 C55.881532,32.2117427 69.0240217,14.3817508 64.1134796,12.7527832" id="Fill-1" fill="#0A0261"></path>
                        </g>
                    </g>
                </g>
            </g>
        </g>
    </g>
</svg>

<svg xmlns="http://www.w3.org/2000/svg" width="200" height="200"><style>@keyframes a0_t{0%{transform:translate(60.52px,45.87px) rotate(0deg) translate(-49.520525px,-45.870548px);animation-timing-function:cubic-bezier(.42,0,1,1)}50%{transform:translate(60.52px,45.87px) rotate(15deg) translate(-49.520525px,-45.870548px);animation-timing-function:cubic-bezier(.42,0,1,1)}to{transform:translate(60.52px,45.87px) rotate(0deg) translate(-49.520525px,-45.870548px)}}@keyframes a1_t{0%{transform:translate(49.99136px,46.327324px) rotate(0deg) translate(-49.974989px,-45.870548px);animation-timing-function:cubic-bezier(.42,0,.784356,1)}50%{transform:translate(49.99136px,46.327324px) rotate(15deg) translate(-49.974989px,-45.870548px);animation-timing-function:cubic-bezier(.42,0,.58,1)}to{transform:translate(49.99136px,46.327324px) rotate(0deg) translate(-49.974989px,-45.870548px)}}</style><g id="Landing" fill="none" fill-rule="evenodd"><g id="landing-page-mvp" transform="translate(-886 -1899)"><g id="Group-7" transform="translate(338 1751)"><g id="Group-5-Copy" transform="translate(484 148)"><g id="Group-9" transform="translate(64)"><g id="five" transform="rotate(-90 109.275 8.912)"><g transform="translate(.016 .457)"><g transform="translate(11)" style="animation:a0_t 4s linear infinite both"><path id="Fill-1" d="M39.219 88.635c1.433-2.703-2.214-26.395-1.733-26.514 9.113-2.238 24.888-9.363 31.506-15.724 11.989-11.526 34.634-7.854 29.252-19.979-8.504-12.041-33.235 3.996-33.235 3.996-.018-4.942.142-24.41-.254-29.269C58.762.066 52.12.602 47.603 4.487 40.832-5.433 22.676 6.53 15.75 3.012 7.319 11.057 1.37 33.36.264 44.02-1.16 57.8 4.05 72.74 3.54 87.036c10.76.956 31.171 10.042 35.679 1.599z" fill="#080061" transform="translate(-.016 -.457)"/><path id="Fill-1-2" d="M64.114 12.753c-.061-.017-.068.197-.02.227 3.088 1.869-4.414 8.472-5.445 9.072-6.417 3.718-5.584-6.006-5.177-9.754.105-.95-.67-3.31-1.294-1.322-2.91 9.236-11.936 22.176-15.056 6.54a30.097 30.097 0 0 0-.541-3.212c-.86-3.808-2.595.08-2.67 2.493-.026.015-.05.032-.075.047 1.447 9.229-8.816 7.92-10.356-.774 0-1.583-.086-2.994-.216-4.02-.475-3.702-2.608-2.023-2.76.784-.048.82-.035 1.88.037 3.053-.402 4.089-3.344 6.935-7.06 8.573-1.016.447-.884 3.173-.093 3.75 5.048 3.678 7.7 1.023 8.995-3.257 1.494 3.835 4.011 6.793 8.105 6.117 3.441-.57 5.282-2.822 6.153-5.659 2.377 4.738 6.054 8.023 10.686 1.834 1.908-2.558 3.497-5.42 4.582-8.455.022.33.03.667.062 1.001.083 1.256.463 2.36.866 3.535 3.044 8.886 16.187-8.944 11.276-10.573" fill="#095FEA" transform="translate(-.016 -.457)"/></g></g></g><g id="five-copy" transform="matrix(0 -1 -1 0 95.636 164.026)"><g transform="translate(.016 .457)" style="animation:a1_t 4s linear infinite both"><path id="Fill-1-3" d="M39.219 88.635c1.433-2.703-2.214-26.395-1.733-26.514 9.113-2.238 24.888-9.363 31.506-15.724 11.989-11.526 35.57-7.854 30.188-19.979-5.584-9.58-32.809-2.998-34.171 2.125-.018-4.942.142-22.54-.254-27.398C58.762.066 52.12.602 47.603 4.487 40.832-5.433 22.676 6.53 15.75 3.012 7.319 11.057 1.37 33.36.264 44.02-1.16 57.8 4.05 72.74 3.54 87.036c10.76.956 31.171 10.042 35.679 1.599z" fill="#FF0056" transform="translate(-.016 -.457)"/><path id="Fill-1-4" d="M64.114 12.753c-.061-.017-.068.197-.02.227 3.088 1.869-4.414 8.472-5.445 9.072-6.417 3.718-5.584-6.006-5.177-9.754.105-.95-.67-3.31-1.294-1.322-2.91 9.236-11.936 22.176-15.056 6.54a30.097 30.097 0 0 0-.541-3.212c-.86-3.808-2.595.08-2.67 2.493-.026.015-.05.032-.075.047 1.447 9.229-8.816 7.92-10.356-.774 0-1.583-.086-2.994-.216-4.02-.475-3.702-2.608-2.023-2.76.784-.048.82-.035 1.88.037 3.053-.402 4.089-3.344 6.935-7.06 8.573-1.016.447-.884 3.173-.093 3.75 5.048 3.678 7.7 1.023 8.995-3.257 1.494 3.835 4.011 6.793 8.105 6.117 3.441-.57 5.282-2.822 6.153-5.659 2.377 4.738 6.054 8.023 10.686 1.834 1.908-2.558 3.497-5.42 4.582-8.455.022.33.03.667.062 1.001.083 1.256.463 2.36.866 3.535 3.044 8.886 16.187-8.944 11.276-10.573" fill="#0A0261" transform="translate(-.016 -.457)"/></g></g></g></g></g></g></g></svg>
